X: 8
T:Highland Mary - Bampton
S:OY(AB)4
N:Tune as played for Grand Union Morris
M:4/4
L:1/8
Q:150
K:G
"A"D2 | G2 AG FE D2 | G2 AB c2 Bc | d2 de dcBA | GABG D2 D2 | G2 AG FE D
2 | G2 AB c2 Bc | d2 de dcBA | G2 F2 G4||
"B"GABc d2 d2 | ed cB c2 Bc | d2 de dcBA | GABG D2 D2 | G2 AG FE D2 | G2
 AB c2 Bc | d2 de dcBA | G2 F2 G4 :||
